iconen/voorziening/901.svg

<?xml version="1.0" encoding="UTF-8" standalone="no"?>
<!DOCTYPE svg PUBLIC "-//W3C//DTD SVG 1.1//EN" "http://www.w3.org/Graphics/SVG/1.1/DTD/svg11.dtd">
<svg width="512" height="512" xmlns="http://www.w3.org/2000/svg" clip-rule="evenodd" xml:space="preserve" version="1.1">

 <g>
  <title>Layer 1</title>
  <g id="svg_4">
   <path id="svg_1" stroke-width="16px" stroke="black" fill-rule="nonzero" fill="rgb(255,255,0)" d="m448,255c0,-106 -86,-192 -192,-192c-106,0 -192,86 -192,192c0,106 86,192 192,192c106,0 192,-86 192,-192z"/>
   <path id="svg_2" stroke-miterlimit="4" stroke-linejoin="round" stroke-linecap="round" stroke-width="32px" stroke="black" fill-rule="nonzero" fill="none" d="m250.26,166.05l5.74,121.95l5.73,-121.95c0.004,-0.087 0.006,-0.173 0.006,-0.26c0,-3.149 -2.591,-5.74 -5.74,-5.74c-0.019,0 -0.037,0 -0.056,0c-3.128,0.029 -5.686,2.611 -5.686,5.74c0,0.087 0.002,0.173 0.006,0.26z"/>
   <path id="svg_3" fill-rule="nonzero" d="m256,367.91c-10.972,0 -20,-9.028 -20,-20c0,-10.972 9.028,-20 20,-20c10.972,0 20,9.028 20,20c0,10.972 -9.028,20 -20,20z"/>
  </g>
 </g>
</svg>

<?xml version="1.0" encoding="UTF-8" standalone="no"?>
<!DOCTYPE svg PUBLIC "-//W3C//DTD SVG 1.1//EN" "http://www.w3.org/Graphics/SVG/1.1/DTD/svg11.dtd">
<svg width="100%" height="100%" viewBox="0 0 512 512" version="1.1" xmlns="http://www.w3.org/2000/svg" xmlns:xlink="http://www.w3.org/1999/xlink" xml:space="preserve" xmlns:serif="http://www.serif.com/" style="fill-rule:evenodd;clip-rule:evenodd;stroke-miterlimit:10;">
    <path d="M448,256C448,150 362,64 256,64C150,64 64,150 64,256C64,362 150,448 256,448C362,448 448,362 448,256Z" style="fill:rgb(255,255,0);fill-rule:nonzero;stroke:black;stroke-width:16px;"/>
    <path d="M250.26,166.05L256,288L261.73,166.05C261.734,165.963 261.736,165.877 261.736,165.79C261.736,162.641 259.145,160.05 255.996,160.05C255.977,160.05 255.959,160.05 255.94,160.05C252.812,160.079 250.254,162.661 250.254,165.79C250.254,165.877 250.256,165.963 250.26,166.05Z" style="fill:none;fill-rule:nonzero;stroke:black;stroke-width:32px;stroke-linecap:round;stroke-linejoin:round;stroke-miterlimit:4;"/>
    <path d="M256,367.91C245.028,367.91 236,358.882 236,347.91C236,336.938 245.028,327.91 256,327.91C266.972,327.91 276,336.938 276,347.91C276,358.882 266.972,367.91 256,367.91Z" style="fill-rule:nonzero;"/>
</svg>
